X: 1
T: String Quartet in G Major opus 33 no 5 mvt 4
C: Franz Joseph Haydn
%%abc-version 2.0
%%abcx-abcm2ps-target-version 5.9.1 (29 Sep 2008)
%%abc-creator hum2abc beta
%%abcx-conversion-date 2021/02/14 14:38:28
%%abc-copyright Copyright (c) 1994, 2000 Center for Computer Assisted Research in the Humanities
%%abc-edited-by Frances Bennion
%%abcx-initial-encoding-date 1997/04/15
%%gracespace 0 6 6
%%humdrum-veritas 2850618129
%%humdrum-veritas-data 3170886893
%%linebreak <none>
%%barnumbers 0
L: 1/8
M: 6/8
N: Derived from op33n5-04.krn
Q: "Finale: Allegretto"
%%staves [1 2 3 4]
V: 1
V: 2
V: 3 clef=alto
V: 4 clef=bass
K: G
[V:1]z4 zd [I:setbarnb1]|
[V:2]z4 zz |
[V:3]z4 zz |
[V:4]z4 zz |
[V:1]d>^cd d>cd |
[V:2]B2B B2B |
[V:3]D2D D2G |
[V:4]G,2G, G,2G, |
[V:1]e>^de A2c |
[V:2]c2E F2A |
[V:3]G2G F2F |
[V:4]C,2C, D,2D, |
[V:1]B>cd A>Bc |
[V:2]D2B, E2C |
[V:3]G2D E2E |
[V:4]G,2G, C,2C, |
[V:1]G3 F2D |
[V:2]B,3 A,2z |
[V:3]D4- Dz |
[V:4]D,4- D,z |
[V:1]D>ED D>ED |
[V:2]C2C C2C |
[V:3]A,2A, A,2A, |
[V:4]F,2F, F,2F, |
[V:1]c>dc B2B |
[V:2]A,2A, B,2B |
[V:3]D2D D2G, |
[V:4]F,2F, G,2G, |
[V:1]e>^de g>fe |
[V:2]B2B ^A2A |
[V:3]G,2G, E,2G, |
[V:4]C,2C, C,2C, |
[V:1]e3 ^d2=d |
[V:2]^A3 B2z |
[V:3]G,3 F,2z |
[V:4]B,,4- B,,z |
[V:1]d>^cd e>de |
[V:2]F2F G2G |
[V:3]B,2B, B,2B, |
[V:4]B,2B, E,2E, |
[V:1]^c>Bc d2=c |
[V:2]E2E F2A |
[V:3]A,2A, A,2D |
[V:4]A,2A, D,2F, |
[V:1]B>cd A>Bc |
[V:2]D2B, E2C |
[V:3]D2D E2E |
[V:4]G,2G, C,2C, |
[V:1]G3 F2D |
[V:2]B,3 A,2z |
[V:3]D4- DF, |
[V:4]D,4- D,D, |
[V:1]E>FE E>Ac |
[V:2]B,2B, C2C |
[V:3]^G,2G, A,2A, |
[V:4]D,2D, C,2C, |
[V:1]D>ED D>GB |
[V:2]A,2A, B,2D |
[V:3]F,2F, G,2B, |
[V:4]C,2C, B,,2B,, |
[V:1]A>Bc G>AF |
[V:2]E2E B,2A, |
[V:3]C2C D2F, |
[V:4]C,2C, D,2D, |
[V:1]A3 G2d |
[V:2]C3 B,2z |
[V:3]F,3 G,2z |
[V:4]G,,4- G,,z |
[V:1]^c/d/e/d/d c/d/e/d/d |
[V:2]B,2B, B,2B, |
[V:3]D2D D2G |
[V:4]G,2G, G,2G, |
[V:1]^d/e/f/e/g A2c' |
[V:2]C2E F2F |
[V:3]G2G F2A, |
[V:4]C,2C, D,2D, |
[V:1]c'/b/a/g/f/e/ d/c/B/A/c/A/ |
[V:2]G2D E2C |
[V:3]D2B, C2C |
[V:4]G,2G, C,2C, |
[V:1]G3 F2D |
[V:2]B,3 A,2z |
[V:3]D4- Dz |
[V:4]D,4- D,z |
[V:1]^C/D/E/D/D ^c/d/e/d/d |
[V:2]C2C C2C |
[V:3]A,2A, A,2A, |
[V:4]F,2F, F,2F, |
[V:1]b/c'/e'/c'/e'/c'/ b2b |
[V:2]A2A D2B |
[V:3]D,2D D2G |
[V:4]F,2F, G,2G, |
[V:1]e'/^d'/e'/d'/e'/d'/ e'ge |
[V:2]B2B ^A2A |
[V:3]G2G E2G |
[V:4]C,2C, C,2C, |
[V:1]^d/e/f/^g/^a/b/ Bz=d |
[V:2]B4- Bz |
[V:3]B^DD D2z |
[V:4]B,,4- B,,z |
[V:1]^c/d/f/d/B f/g/b/g/e |
[V:2]F2F G2G |
[V:3]D2D E2E |
[V:4]B,2B, E,2E, |
[V:1]^B/^c/e/c/A/c/ d2=c/c'/ |
[V:2]E2E F2A |
[V:3]^C2E D2D |
[V:4]A,2A, D,2F, |
[V:1]c'/b/a/g/f/e/ d/c/B/A/c/A/ |
[V:2]G2D E2C |
[V:3]D2B, C2C |
[V:4]G,2G, C,2C, |
[V:1]G3 F2d |
[V:2]B,3 A,2z |
[V:3]D4- Dz |
[V:4]D,4- D,D, |
[V:1]=F/E/F/E/F/E/ ecc |
[V:2]B,2B, C2C |
[V:3]^G,2G, A,2A, |
[V:4]D,2D, C,2C, |
[V:1]_E/D/E/D/E/D/ dBg |
[V:2]A,2A, B,2D |
[V:3]F,2F, G,2B, |
[V:4]C,2C, B,,2B,, |
[V:1]A,/B,/C/D/E/F/ G/A/B/c/A/F/ |
[V:2]E2E C2C |
[V:3]C2A, F,2F, |
[V:4]C,2C, D,2D, |
[V:1]A3 G2z |
[V:2]C3 B,2d |
[V:3]F,3 G,2B |
[V:4]G,,4- G,,z |
[V:1]z6 |
[V:2]d>ed d>ed |
[V:3]B>cB B>cB |
[V:4]z2G G>FG |
[V:1]z4 zc' |
[V:2]e>^de Az=d |
[V:3]c>Bc F>GA |
[V:4]C3 D>EF |
[V:1]b/c'/d'/e'/f'/g'/ f'/g'/f'/g'/e'/c'/ |
[V:2]d3 e2-e/a/ |
[V:3]B3 c3 |
[V:4]G3 C3 |
[V:1]b3 a2d' |
[V:2]g3 f2d' |
[V:3]d2z3 F |
[V:4]D6 |
[V:1]d'6- |
[V:2]c'3 b>ag |
[V:3]F>GA B>cd |
[V:4]D>EF G>AB |
[V:1]d'4- d'c' |
[V:2]f>ga g2f |
[V:3]A>GF G2A, |
[V:4]c3 B2D, |
[V:1]b>ag g>fe |
[V:2]g2B ^A2A |
[V:3]B,>CD E>FG |
[V:4]G,>A,B, C3 |
[V:1]e3 ^d2f |
[V:2]^A3 B2d |
[V:3]G3 F2B |
[V:4]B,4- B,z |
[V:1]f>gf g>ab |
[V:2]d>ed e>fg |
[V:3]B2B E2E |
[V:4]z6 |
[V:1]e>fg fzc' |
[V:2]^c>de d2d |
[V:3]A2A D2A |
[V:4]z3 D>EF |
[V:1]b/c'/d'/e'/f'/g'/ f'/g'/f'/g'/e'/c'/ |
[V:2]d3 e2e/a/ |
[V:3]B3 c3 |
[V:4]G3 C3 |
[V:1]b3 a2d' |
[V:2]g3 f2z |
[V:3]d4- dd |
[V:4]D4- D/E/F |
[V:1]d'3 ^c'3 |
[V:2]z2e g>ag |
[V:3]d>A^G A2z |
[V:4]^G>AB A2z |
[V:1]c'3 b2B, |
[V:2]f>ga g2z |
[V:3]A>GF G2D, |
[V:4]D>EF G2z |
[V:1]A,>CE D>GF |
[V:2]z2C B,2A, |
[V:3]E,3 G,2A, |
[V:4]C,,3 D,,3 |
[V:1]A3 G2d |
[V:2]C3 B,2B |
[V:3]F,3 G,2z |
[V:4]G,,4- G,,z |
[V:1]d>^cd d>cd |
[V:2]B2B B2B |
[V:3]G,/G/F/G/D/B,/ G,/B/G/F/E/D/ |
[V:4]G,,2G,, G,,2G,, |
[V:1]e>^de A2c |
[V:2]c2E F2A |
[V:3]C/c/B/c/A/G/ F/G/A/D/E/F/ |
[V:4]C,2C, D,2D, |
[V:1]B>cd A>Bc |
[V:2]G2B E2C |
[V:3]G/F/E/D/C/B,/ C/D/C/B,/A,/C/ |
[V:4]G,,2G,, C,2z |
[V:1]G3 F2D |
[V:2]B,3 A,2z |
[V:3]D/d/^c/d/c/d/ D/F/A/d/A/F/ |
[V:4]D,2z D,2z |
[V:1]D>ED D>ED |
[V:2]A,2A, C2C |
[V:3]D/c/B/c/A/F/ D/C/A,/G,/F,/E,/ |
[V:4]F,2z F,2z |
[V:1]c>dc B2B |
[V:2]A,2A, B,2B, |
[V:3]D,/F,/A,/C/D/F/ G/B/G/F/E/D/ |
[V:4]F,2z G,2z |
[V:1]e>^de g>fe |
[V:2]B,2B, ^A,2A, |
[V:3]C/E/G,/F,/E,/D,/ C,/D,/E,/F,/G,/E,/ |
[V:4]C,2z C,2z |
[V:1]e3 ^d2=d |
[V:2]^A,3 B,2z |
[V:3]G,3 F,2z |
[V:4]B,,4- B,,z |
[V:1]d>^cd d>cd |
[V:2]B2B B2B |
[V:3]G,2z G,2z |
[V:4]G,,/G,/F,/G,/D,/B,,/ G,,/B,/G,/F,/E,/D,/ |
[V:1]e>^de A2c |
[V:2]c2C D2A |
[V:3]C2A, F,2D |
[V:4]C,/C/B,/C/A,/G,/ F,/G,/A,/D,/E,/F,/ |
[V:1]B>cd A>Bc |
[V:2]D2G E2C |
[V:3]G,2z C2z |
[V:4]G,/F,/E,/D,/C,/B,,/ C,/D,/C,/B,,/A,,/C,/ |
[V:1]G3 F2D |
[V:2]B,3 A,2z |
[V:3]D4- Dz |
[V:4]D,/D/^C/D/C/D/ D,/F,/A,/D/A,/F,/ |
[V:1]D>ED D>ED |
[V:2]A,2A, A,2A, |
[V:3]F,2F, F,2F, |
[V:4]D,/C/B,/C/A,/F,/ D,/C,/A,,/G,,/F,,/E,,/ |
[V:1]c>dc B2B |
[V:2]F2A D2B |
[V:3]A,2F, G,2G |
[V:4]D,,/F,,/A,,/C,/D,/F,/ G,/B,/G,/F,/E,/D,/ |
[V:1]e>^de g>fe |
[V:2]B2B ^A2A |
[V:3]G2G G2E |
[V:4]C,/E,/F,/G,/A,/B,/ C/B,/C/D/C |
[V:1]e3 ^d2=d |
[V:2]^A3 B2z |
[V:3]G3 F2z |
[V:4]B,B,,B,, B,,2z |
[V:1]d>^cd e>de |
[V:2]F2F G2G |
[V:3]B/d/B/A/G/F/ E/F/G/E/F/G/ |
[V:4]B,2z E,2z |
[V:1]^c>Bc d2=c |
[V:2]E2E F2A |
[V:3]A/B/A/G/F/E/ D/E/F/D/E/F/ |
[V:4]A,2z D,2z |
[V:1]B>cd A>Bc |
[V:2]D2B, E2C |
[V:3]G/F/E/D/C/B,/ C/D/C/B,/A,/C/ |
[V:4]G,2z C,2z |
[V:1]G3 F2D |
[V:2]B,3 A,2z |
[V:3]D/d/^c/d/c/d/ D/E/D/C/B,/A,/ |
[V:4]D,4- D,z |
[V:1]E>FE E>Ac |
[V:2][D2B,2][DB,] C2z |
[V:3]^G,/B,/E/^G/B/d/ c/d/c/B/A/=G/ |
[V:4]^G,2z A,2z |
[V:1]D>ED D>GB |
[V:2]C2C B,2D |
[V:3]F/G/A/D/E/F/ G/F/E/D/C/B,/ |
[V:4]F,2z G,2z |
[V:1]A>Bc G>AF |
[V:2]E2E B,2A, |
[V:3]C/C,/C/B,/A,/C/ D/d/^c/d/=c/A/ |
[V:4]C,2z D,2z |
[V:1]A3 G2d |
[V:2]A,3 B,2z |
[V:3]F3 G2z |
[V:4]G,,4- G,,z |
[V:1]d>^cd e>de |
[V:2]F2F G2G |
[V:3]B,2B, B,2B, |
[V:4]B,/D/B,/A,/G,/F,/ E,/F,/G,/E,/F,/G,/ |
[V:1]^c>Bc d2=c |
[V:2]E2E F2A |
[V:3]A,2A, A,2D |
[V:4]A,/B,/A,/G,/F,/E,/ D,/E,/F,/D,/E,/F,/ |
[V:1]B>cd A>Bc |
[V:2]D2G E2C |
[V:3]D2D E2E |
[V:4]G,/F,/E,/D,/C,/B,,/ C,/D,/C,/B,,/A,,/C,/ |
[V:1]G3 F2D |
[V:2]B,3 A,2z |
[V:3]D4- Dz |
[V:4]D,/D/^C/D/C/D/ D,/E,/D,/C,/B,,/A,,/ |
[V:1]E>FE E>Ac |
[V:2]D2D C2C |
[V:3]B,2B, A,2C |
[V:4]^G,,/B,,/E,/^G,/B,/D/ C/D/C/B,/A,/=G,/ |
[V:1]D>ED D>GB |
[V:2]C2C B,2D |
[V:3]A,2A, B,2B, |
[V:4]F,/G,/A,/D,/E,/F,/ G,/F,/E,/D,/C,/B,,/ |
[V:1]A>Bc G>AF |
[V:2]E2C B,2A, |
[V:3]C2C D2F, |
[V:4]C,/C,,/C,/B,,/A,,/C,/ D,/D/^C/D/=C/A,/ |
[V:1]A3 G2d |
[V:2]C3 B,2z |
[V:3]F,3 G,2z |
[V:4]G,,/G,/F,/G,/F,/G,/ G,,2z |
[V:1]dB/c/d dB/c/d |
[V:2]B2B B2B |
[V:3]D2D D2G |
[V:4]G,2G, G,2G, |
[V:1]ee/d/e A2c |
[V:2]c2E F2A |
[V:3]G2G F2F |
[V:4]C,2C, D,2D, |
[V:1]BB/c/d AA/B/c |
[V:2]D2B, E2C |
[V:3]G2D E2E |
[V:4]G,2G,, C,2C, |
[V:1]G3 F2D |
[V:2]B,3 A,2z |
[V:3]D4- Dz |
[V:4]D,4- D,z |
[V:1]DD/E/D DD/E/D |
[V:2]C2C C2C |
[V:3]A,2A, A,2A, |
[V:4]F,2F, F,2F, |
[V:1][acD]cc B2g |
[V:2]A,2A, B,2B |
[V:3]D2D D2G, |
[V:4]F,2F, G,2B,, |
[V:1]AA/B/c DD/E/F |
[V:2]E2z C2z |
[V:3]C2z A,2z |
[V:4]C,2z D,2z |
[V:1]G2z3 g |
[V:2][GB,]G/F/G GG/F/G |
[V:3]G,2z4 |
[V:4]G,2z3 E |
[V:1]ff/g/e dd/e/c |
[V:2]GG/F/G GG/F/G |
[V:3]z6 |
[V:4]D2C B,2A, |
[V:1]BB/d/^c d2g |
[V:2]GG/F/G GG/F/G |
[V:3]G,G,/F,/G, G,2z |
[V:4]G,2A, B,2E |
[V:1]ff/g/e dd/e/c |
[V:2]GG/F/G GG/F/G |
[V:3]z6 |
[V:4]DD/E/C B,B,/C/A, |
[V:1]BB/d/^c d2g |
[V:2]GG/F/G GG/F/G |
[V:3]G,G,/F,/G, G,2z |
[V:4]G,2A, B,2B,, |
[V:1]AA/B/c DD/E/F |
[V:2]E2z C2z |
[V:3]C2z A,2z |
[V:4]C,2z D,2z |
[V:1]G2z3 G |
[V:2]B,2z3 G |
[V:3]G,2z3 E |
[V:4]G,G,/F,/G, G,G,/F,/G, |
[V:1]B2c =f2e |
[V:2]=FF/G/E D2E |
[V:3]DD/E/C B,2C |
[V:4]G,G,/F,/G, G,G,/F,/G, |
[V:1]B2c d2G |
[V:2]D2C B,2G |
[V:3]B,2A, G,2E |
[V:4]G,G,/F,/G, G,G,/F,/G, |
[V:1]B2c =f2e |
[V:2]=FF/G/E D2E |
[V:3]DD/E/C B,2C |
[V:4]G,G,/F,/G, G,G,/F,/G, |
[V:1]B2c d2g |
[V:2]D2C B,2z |
[V:3]B,2A, G,2z |
[V:4]G,G,/F,/G, G,G,/F,/G, |
[V:1]AA/B/c DD/E/F |
[V:2]E2z C2z |
[V:3]C2z A,2z |
[V:4]C,2z D,2z |
[V:1]gg/f/g ee/d/e |
[V:2]gg/f/g ee/d/e |
[V:3]GG/F/G EE/D/E |
[V:4]G,G,/F,/G, E,E,/D,/E, |
[V:1]cc'c' zff |
[V:2]cee zcc |
[V:3]C2z2 AA |
[V:4]C,2z D,2z |
[V:1]gg/f/g ee/d/e |
[V:2]gg/f/g ee/d/e |
[V:3]GG/F/G EE/D/E |
[V:4]G,G,/F,/G, E,E,/D,/E, |
[V:1]ce'e' zff |
[V:2]cc'c' zcc |
[V:3]C2z2 AA |
[V:4]C,2z D,2z |
[V:1]g2z c2z |
[V:2]B2z F2z |
[V:3]G2z4 |
[V:4]G,2z4 |
[V:1]B2z [D2f2A2]z |
[V:2]G2z [f2A2D2]z |
[V:3]z3 [c2D2]z |
[V:4]z3 D,2z |
[V:1][g2B2D2]z4 |]
[V:2][B2g2D2]z4 |]
[V:3][B2G,2D2]z4 |]
[V:4]G,,2z4 |]

